assets/features/channel/southeast-asia1/AllBank.svg

<svg width="80" height="80" viewBox="0 0 80 80" fill="none" xmlns="http://www.w3.org/2000/svg">
<rect x="0.5" y="0.5" width="79" height="79" rx="7.5" fill="white"/>
<rect x="0.5" y="0.5" width="79" height="79" rx="7.5" stroke="#EEEEEE"/>
<path d="M68.5818 38.8345C69.1954 38.1487 69.809 37.463 70.4316 36.7772C70.8015 36.3621 71.1083 35.8027 71.5685 35.5951C72.0287 35.3876 72.6513 35.532 73.2018 35.5229C73.9327 35.5229 74.6635 35.5229 75.4035 35.5229C75.4396 35.7305 75.2681 35.8027 75.1779 35.8929C74.1221 36.9938 73.0664 38.0856 71.9926 39.1684C71.758 39.403 71.758 39.5564 71.9385 39.8271C73.2198 41.731 74.4831 43.653 75.7464 45.566C75.8185 45.6742 75.9268 45.7735 75.9268 45.9269C75.8005 46.0171 75.6561 45.972 75.5208 45.972C74.456 45.972 73.3913 45.954 72.3265 45.981C71.9746 45.981 71.7851 45.8637 71.6046 45.566C70.9369 44.42 70.2331 43.2921 69.5473 42.1551C69.3849 41.8754 69.2856 41.7942 68.9878 42.0649C68.5818 42.4348 68.4103 42.8138 68.4464 43.3643C68.4916 44.1042 68.4464 44.8621 68.4645 45.602C68.4645 45.8908 68.3743 45.981 68.0855 45.981C67.2102 45.963 66.344 45.954 65.4687 45.981C65.1078 45.9901 64.9995 45.8998 64.9995 45.5299C65.0176 42.2634 64.9995 38.9969 64.9995 35.7305C64.9995 34.4853 65.0085 33.24 64.9995 31.9948C64.9995 31.679 65.0897 31.5887 65.3965 31.5978C66.2808 31.6158 67.1651 31.6158 68.0494 31.5978C68.3923 31.5887 68.4645 31.7241 68.4555 32.0309C68.4464 34.1243 68.4555 36.2087 68.4555 38.3021C68.4555 38.4646 68.4555 38.627 68.4555 38.7984C68.4916 38.8165 68.5186 38.8255 68.5547 38.8435L68.5818 38.8345Z" fill="#63AD5B"/>
<path d="M56.4455 36.8767C57.4291 35.6766 58.6021 35.1713 60.0098 35.2074C62.0581 35.2615 63.3123 36.4255 63.4477 38.4468C63.6101 40.847 63.4748 43.2562 63.5199 45.6655C63.5199 45.9362 63.3935 45.9813 63.168 45.9813C62.2566 45.9813 61.3452 45.9723 60.4249 45.9813C60.1361 45.9813 60.0459 45.891 60.0459 45.6023C60.0549 43.8608 60.0459 42.1193 60.0459 40.3778C60.0459 39.9627 60.0459 39.5476 59.9466 39.1416C59.8022 38.537 59.3872 38.158 58.7646 38.0858C57.411 37.9324 56.5538 38.6994 56.5448 40.1071C56.5268 41.9027 56.5268 43.7074 56.5448 45.503C56.5448 45.9001 56.4275 45.9903 56.0575 45.9813C55.2003 45.9542 54.3431 45.9632 53.4859 45.9813C53.1881 45.9813 53.0708 45.9181 53.0708 45.5933C53.0798 42.3539 53.0708 39.1235 53.0708 35.8841C53.0708 35.6315 53.1159 35.5051 53.4137 35.5142C54.316 35.5322 55.2093 35.5322 56.1117 35.5142C56.3734 35.5142 56.4546 35.6044 56.4365 35.857C56.4185 36.1548 56.4365 36.4616 56.4365 36.8767H56.4455Z" fill="#63AD5B"/>
<path d="M18.4028 38.5547C18.4028 36.2628 18.4028 33.9618 18.4028 31.6699C18.4028 31.309 18.484 31.1917 18.863 31.2007C19.648 31.2277 20.4421 31.2007 21.2271 31.2007C21.5881 31.2007 21.7685 31.3751 21.7685 31.724C21.7685 35.189 21.7685 38.663 21.7685 42.128C21.7685 43.2739 21.7685 44.4199 21.7685 45.5659C21.7685 45.8456 21.7054 45.9539 21.3986 45.9539C20.5233 45.9358 19.6571 45.9358 18.7818 45.9539C18.457 45.9539 18.3938 45.8366 18.3938 45.5478C18.4028 43.2108 18.3938 40.8737 18.3938 38.5367L18.4028 38.5547Z" fill="#ED3D43"/>
<path d="M23.4109 38.5994C23.4109 36.2714 23.4109 33.9524 23.4109 31.6244C23.4109 31.2995 23.5011 31.2003 23.826 31.2093C24.6561 31.2273 25.4863 31.2364 26.3164 31.2093C26.6864 31.1912 26.7766 31.3086 26.7766 31.6695C26.7676 35.4593 26.7766 39.2491 26.7766 43.0389C26.7766 43.8962 26.7766 44.7534 26.7766 45.6106C26.7766 45.8813 26.6954 45.9715 26.4247 45.9715C25.5494 45.9535 24.6832 45.9535 23.8079 45.9715C23.4921 45.9715 23.4109 45.8813 23.4109 45.5745C23.4199 43.2465 23.4109 40.9275 23.4109 38.5994Z" fill="#ED3D43"/>
<path d="M27.9677 49.1214C27.715 49.1214 27.4714 49.1395 27.2188 49.1395C19.6662 49.1395 12.1046 49.1395 4.55203 49.1395C4.09184 49.1395 3.8843 48.8056 4.06477 48.3635C4.11891 48.2191 4.23621 48.2462 4.33547 48.2462C4.61519 48.2462 4.8859 48.2462 5.16562 48.2462C12.5558 48.2462 19.9459 48.2462 27.3361 48.2462C27.4624 48.2462 27.5887 48.2552 27.706 48.2642C27.706 48.3183 27.688 48.3635 27.6519 48.3996C27.4173 48.562 27.1466 48.5169 26.8849 48.5169C23.6726 48.5169 20.4693 48.5169 17.2569 48.5169C17.0765 48.5169 16.896 48.4988 16.7246 48.5529C16.6524 48.571 16.5892 48.6161 16.6073 48.6973C16.6073 48.7515 16.6704 48.7876 16.7246 48.8056C16.896 48.8688 17.0765 48.8507 17.2569 48.8507C20.5505 48.8507 23.844 48.8507 27.1375 48.8507C27.4082 48.8507 27.697 48.7876 27.9406 48.977C27.9767 49.0222 27.9857 49.0673 27.9677 49.1214Z" fill="#E95A2F"/>
<path d="M52.06 49.1299C51.8796 49.1299 51.6991 49.1479 51.5186 49.1479C47.9364 49.1479 44.3541 49.1479 40.7808 49.1479C40.5282 49.1479 40.2845 49.1299 40.0319 49.1299C39.7612 48.8231 39.7612 48.5704 40.0319 48.2637C40.1943 48.2637 40.3657 48.2456 40.5282 48.2456C48.2432 48.2456 55.9672 48.2456 63.6822 48.2456C63.8356 48.2456 63.9889 48.2637 64.1333 48.2637C64.2867 48.5704 64.2687 48.8592 64.0521 49.1299C64.007 49.1299 63.9619 49.1299 63.9258 49.1299C63.6641 48.5524 63.1859 48.4983 62.6174 48.5073C59.4592 48.5253 56.292 48.5253 53.1338 48.5073C52.6285 48.5073 52.2405 48.6156 52.051 49.1299H52.06Z" fill="#8CC345"/>
<path d="M40.032 48.2637C40.032 48.5524 40.032 48.8411 40.032 49.1299C38.3627 49.1299 36.6843 49.1479 35.015 49.1479C32.6599 49.1479 30.3138 49.1389 27.9587 49.1299C27.9587 49.1118 27.9587 49.0938 27.9587 49.0758C27.8955 48.8051 27.7421 48.5704 27.7061 48.2907V48.2637C30.2687 48.2637 32.8223 48.2546 35.3849 48.2456C36.937 48.2456 38.48 48.2456 40.032 48.2637Z" fill="#B969A7"/>
<path d="M64.0611 49.1299C64.0521 48.8321 63.9528 48.5344 64.1423 48.2637C65.7755 48.2637 67.4088 48.2546 69.033 48.2456C71.2166 48.2456 73.4003 48.2546 75.5839 48.2456C75.9539 48.2456 76.008 48.39 75.999 48.7058C75.999 49.0216 75.9629 49.166 75.5839 49.166C71.8392 49.1479 68.0855 49.166 64.3408 49.166C64.2416 49.166 64.1513 49.157 64.0521 49.1479L64.0611 49.1299Z" fill="#28A8DE"/>
<path d="M52.0601 49.13C52.033 48.9946 52.006 48.8593 51.997 48.7239C51.9609 48.4261 52.0872 48.2998 52.394 48.2998C53.2783 48.3088 54.1626 48.2998 55.0469 48.2998C57.7448 48.2998 60.4338 48.2998 63.1318 48.2998C63.6973 48.2998 63.965 48.5765 63.9349 49.13C59.9826 49.13 56.0214 49.13 52.0691 49.13H52.0601Z" fill="#F7AE44"/>
<path d="M40.384 39.9355C39.9779 39.0422 39.2831 38.4647 38.3266 38.1038C38.5612 37.9413 38.7237 37.815 38.8951 37.6977C40.7449 36.3171 40.5193 33.1499 38.2454 32.1664C37.5145 31.8506 36.7475 31.6521 35.9535 31.643C33.5081 31.616 31.0538 31.625 28.6085 31.6069C28.3017 31.6069 28.2114 31.6972 28.2114 32.004C28.2204 36.5247 28.2204 41.0544 28.2114 45.5751C28.2114 45.909 28.3107 45.9902 28.6355 45.9902C30.765 45.9721 32.8946 45.9812 35.0331 45.9902C35.8091 45.9902 36.5761 45.909 37.3431 45.7556C40.0501 45.1961 41.5119 42.4169 40.393 39.9536L40.384 39.9355ZM31.9742 34.8283C31.9742 34.5846 32.0644 34.5215 32.29 34.5305C32.7592 34.5395 33.2284 34.5305 33.6976 34.5305C34.1398 34.5305 34.5819 34.5125 35.0241 34.5305C35.8542 34.5666 36.3595 35.0809 36.3595 35.866C36.3595 36.6149 35.8723 37.1653 35.0692 37.2014C34.1308 37.2465 33.1923 37.2195 32.2539 37.2285C32.0373 37.2285 31.9652 37.1383 31.9742 36.9307C31.9832 36.2269 31.9832 35.5231 31.9742 34.8193V34.8283ZM35.7099 42.8591C35.0782 42.9944 34.4376 42.8952 33.9052 42.9313C33.3096 42.9313 32.8133 42.9222 32.308 42.9313C32.0644 42.9313 31.9652 42.8681 31.9652 42.6064C31.9832 41.7312 31.9652 40.8649 31.9652 39.9896C31.9652 39.8453 31.9291 39.6648 32.1727 39.6738C33.3187 39.7099 34.4736 39.5746 35.6106 39.755C36.4588 39.8904 36.919 40.4408 36.928 41.298C36.9461 42.1643 36.549 42.6696 35.6918 42.8591H35.7099Z" fill="#63AD5B"/>
<path d="M17.69 45.5393C16.2011 41.0728 14.7303 36.5972 13.2595 32.1216C13.1783 31.8689 13.061 31.7787 12.7903 31.7877C11.6533 31.8058 10.5254 31.8058 9.38846 31.7877C9.08167 31.7877 8.96436 31.896 8.8651 32.1757C8.13421 34.2872 7.39429 36.3987 6.65438 38.5101C5.82423 40.8652 5.0031 43.2294 4.17295 45.5845C4.05564 45.9183 4.13686 45.9815 4.4617 45.9725C5.1565 45.9544 5.84227 45.9725 6.53707 45.9725C6.96117 45.9725 7.4755 46.0988 7.80035 45.9093C8.15226 45.7108 8.15226 45.1333 8.29663 44.7182C8.37784 44.4746 8.49515 44.3753 8.76585 44.3753C9.87572 44.3934 10.9766 44.3753 12.0864 44.3844C12.5286 44.3844 13.07 44.2039 13.3768 44.4656C13.6565 44.7092 13.7016 45.2325 13.8189 45.6386C13.8911 45.8732 13.9994 45.9725 14.2521 45.9634C14.7754 45.9454 15.3078 45.9634 15.8312 45.9634C16.3455 45.9634 16.8598 45.9454 17.3651 45.9634C17.717 45.9815 17.8253 45.9273 17.69 45.5303V45.5393ZM12.0143 40.8201C11.2563 40.8111 10.4983 40.8201 9.73135 40.8201C9.55088 40.8201 9.4426 40.8021 9.51479 40.5675C9.95693 39.1418 10.3901 37.7161 10.8232 36.2994C10.8232 36.2723 10.8593 36.2543 10.9134 36.1911C11.3646 37.6529 11.7977 39.0786 12.2398 40.5043C12.312 40.7389 12.2759 40.8291 12.0052 40.8291L12.0143 40.8201Z" fill="#ED3D43"/>
<path d="M51.8708 45.7283C51.564 44.9613 51.564 44.1582 51.564 43.3551C51.564 41.767 51.564 40.1699 51.564 38.5818C51.555 37.0207 50.7519 35.974 49.254 35.5138C48.7036 35.3424 48.1441 35.2702 47.5847 35.2341C46.2582 35.1348 44.9589 35.216 43.7227 35.7665C42.5767 36.2718 41.936 37.1561 41.7646 38.4013C41.7285 38.663 41.7917 38.7713 42.0894 38.7713C42.9376 38.7532 43.7768 38.7532 44.625 38.7713C44.8867 38.7713 44.9859 38.681 45.0581 38.4464C45.1845 38.0223 45.4642 37.7245 45.8883 37.5892C46.547 37.3907 47.1967 37.4087 47.8103 37.7606C48.1892 37.9772 48.3336 38.3201 48.2704 38.7442C48.2073 39.1863 47.9005 39.3668 47.5035 39.448C46.3665 39.6916 45.2025 39.7548 44.0746 40.0165C41.8729 40.5398 40.9525 41.8933 41.4668 44.1041C41.7465 45.3222 42.8745 46.1163 44.3272 46.2426C45.78 46.3599 47.1335 46.0802 48.2975 45.0605C48.3517 45.3312 48.3968 45.5388 48.4419 45.7373C48.469 45.8907 48.5411 45.9809 48.7126 45.9809C49.7052 45.9809 50.7068 45.9809 51.6993 45.9809C51.8888 45.9809 51.952 45.9178 51.8798 45.7283H51.8708ZM48.0268 43.0213C47.6478 44.0499 46.0868 44.5101 45.2025 43.8604C44.5709 43.4002 44.634 42.4077 45.3288 41.9655C45.7619 41.6948 46.2582 41.6226 46.7455 41.5144C47.2328 41.4151 47.72 41.3339 48.2434 41.1264C48.2885 41.8031 48.2434 42.4257 48.0358 43.0122L48.0268 43.0213Z" fill="#63AD5B"/>
<path d="M27.7149 48.2822C28.0939 48.3725 28.148 48.5529 27.9675 49.0673C24.1867 49.0673 20.415 49.0673 16.6342 49.0673C16.3274 49.0673 16.0838 49.0402 16.0477 48.6612C16.0296 48.4627 16.0838 48.3364 16.3003 48.3183C16.4357 48.3183 16.58 48.3183 16.7154 48.3183C20.1713 48.3183 23.6363 48.3183 27.0923 48.3183C27.2998 48.3183 27.5073 48.3003 27.7149 48.2912V48.2822Z" fill="#EA2D36"/>
</svg>

<svg xmlns="http://www.w3.org/2000/svg" width="80" height="80" fill="none" viewBox="0 0 80 80"><rect width="79" height="79" x=".5" y=".5" fill="#fff" rx="7.5"/><rect width="79" height="79" x=".5" y=".5" stroke="#eee" rx="7.5"/><path fill="#63ad5b" d="M68.582 38.835q.918-1.029 1.85-2.058c.37-.415.676-.974 1.136-1.182s1.083-.063 1.634-.072h2.201c.037.207-.135.28-.225.37a273 273 0 0 1-3.185 3.275c-.235.235-.235.388-.054.66 1.28 1.903 2.544 3.825 3.807 5.738.073.108.18.207.18.36-.126.091-.27.046-.405.046-1.065 0-2.13-.018-3.195.009-.351 0-.54-.117-.721-.415-.668-1.146-1.372-2.274-2.058-3.41-.162-.28-.261-.362-.56-.091-.405.37-.577.749-.54 1.3.045.74 0 1.497.017 2.237 0 .289-.09.379-.379.379a51 51 0 0 0-2.616 0c-.361.01-.47-.081-.47-.451.019-3.267 0-6.533 0-9.8 0-1.245.01-2.49 0-3.735 0-.316.09-.406.398-.397q1.326.027 2.652 0c.343-.01.415.126.406.433-.009 2.093 0 4.178 0 6.271v.496c.037.018.064.027.1.045zm-12.136-1.958c.983-1.2 2.156-1.706 3.564-1.67 2.048.054 3.302 1.218 3.438 3.24.162 2.4.027 4.81.072 7.218 0 .271-.127.316-.352.316-.911 0-1.823-.009-2.743 0-.289 0-.38-.09-.38-.379.01-1.741 0-3.483 0-5.224 0-.415 0-.83-.098-1.236-.145-.605-.56-.984-1.182-1.056-1.354-.154-2.211.613-2.22 2.021-.018 1.796-.018 3.6 0 5.396 0 .397-.117.487-.488.478a49 49 0 0 0-2.571 0c-.298 0-.415-.063-.415-.388.009-3.24 0-6.47 0-9.709 0-.252.045-.379.343-.37.902.018 1.795.018 2.698 0 .261 0 .343.09.325.343-.018.298 0 .605 0 1.02z"/><path fill="#ed3d43" d="M18.403 38.555V31.67c0-.361.081-.478.46-.47.785.028 1.58 0 2.364 0q.541 0 .541.524v13.842c0 .28-.063.388-.37.388a63 63 0 0 0-2.616 0c-.325 0-.388-.117-.388-.406.009-2.337 0-4.674 0-7.011zm5.007.045v-6.976c0-.325.091-.424.416-.415.83.018 1.66.027 2.49 0 .37-.018.46.1.46.46-.008 3.79 0 7.58 0 11.37v2.572c0 .27-.08.36-.351.36a63 63 0 0 0-2.617 0c-.316 0-.397-.09-.397-.396.009-2.329 0-4.648 0-6.976"/><path fill="#e95a2f" d="M27.968 49.121c-.253 0-.497.018-.75.018H4.553c-.46 0-.668-.333-.487-.776.054-.144.171-.117.27-.117h23.001c.126 0 .253.01.37.018q0 .082-.054.136c-.235.162-.505.117-.767.117h-9.628c-.18 0-.361-.018-.532.036-.073.018-.136.063-.118.144 0 .054.063.09.118.109.171.063.351.045.532.045h9.88c.271 0 .56-.063.804.126.036.045.045.09.027.144"/><path fill="#8cc345" d="M52.06 49.13c-.18 0-.36.018-.541.018H40.78c-.253 0-.496-.018-.75-.018-.27-.307-.27-.56 0-.866.163 0 .335-.018.497-.018h23.154c.154 0 .307.018.451.018.154.306.136.595-.08.866h-.127c-.262-.578-.74-.632-1.309-.623-3.158.018-6.325.018-9.483 0-.505 0-.894.109-1.083.623z"/><path fill="#b969a7" d="M40.032 48.264v.866c-1.67 0-3.348.018-5.017.018-2.355 0-4.701-.01-7.056-.018v-.054c-.064-.27-.217-.506-.253-.785v-.027c2.563 0 5.116-.01 7.679-.018 1.552 0 3.095 0 4.647.018"/><path fill="#28a8de" d="M64.061 49.13c-.009-.298-.108-.596.081-.866 1.633 0 3.267-.01 4.891-.018 2.184 0 4.367.009 6.55 0 .37 0 .425.144.416.46 0 .316-.036.46-.415.46-3.745-.018-7.499 0-11.243 0-.1 0-.19-.009-.289-.018z"/><path fill="#f7ae44" d="M52.06 49.13a3 3 0 0 1-.063-.406c-.036-.298.09-.424.397-.424.884.009 1.769 0 2.653 0h8.085q.848 0 .803.83z"/><path fill="#63ad5b" d="M40.384 39.936c-.406-.894-1.1-1.471-2.057-1.832.234-.163.397-.289.568-.406 1.85-1.38 1.624-4.548-.65-5.532-.73-.315-1.497-.514-2.291-.523-2.446-.027-4.9-.018-7.346-.036-.306 0-.397.09-.397.397.01 4.52.01 9.05 0 13.571 0 .334.1.415.425.415 2.129-.018 4.259-.009 6.397 0 .776 0 1.543-.081 2.31-.234 2.707-.56 4.169-3.34 3.05-5.802zm-8.41-5.108c0-.243.09-.306.316-.297.47.008.938 0 1.408 0 .442 0 .884-.018 1.326 0 .83.036 1.335.55 1.335 1.335 0 .749-.487 1.3-1.29 1.335-.938.045-1.877.018-2.815.027-.217 0-.289-.09-.28-.297a83 83 0 0 0 0-2.112zm3.736 8.031c-.632.135-1.272.036-1.805.072-.595 0-1.092-.009-1.597 0-.244 0-.343-.063-.343-.325.018-.875 0-1.741 0-2.616 0-.145-.036-.325.208-.316 1.146.036 2.3-.1 3.438.081.848.135 1.308.686 1.317 1.543.018.866-.379 1.372-1.236 1.561z"/><path fill="#ed3d43" d="M17.69 45.54c-1.489-4.467-2.96-8.943-4.43-13.418-.082-.253-.199-.343-.47-.334a107 107 0 0 1-3.402 0c-.306 0-.424.108-.523.388-.73 2.111-1.47 4.223-2.21 6.334-.83 2.355-1.652 4.72-2.482 7.075-.117.333-.036.396.289.387.695-.018 1.38 0 2.075 0 .424 0 .939.127 1.263-.063.352-.198.352-.776.497-1.19.08-.244.198-.344.469-.344 1.11.018 2.21 0 3.32.01.443 0 .984-.181 1.29.08.28.244.326.767.443 1.174.072.234.18.333.433.324.523-.018 1.056 0 1.58 0 .514 0 1.028-.018 1.533 0 .352.018.46-.036.325-.433zm-5.676-4.72c-.758-.009-1.516 0-2.283 0-.18 0-.288-.018-.216-.252.442-1.426.875-2.852 1.308-4.269 0-.027.036-.045.09-.108.452 1.462.885 2.888 1.327 4.313.072.235.036.325-.235.325z"/><path fill="#63ad5b" d="M51.87 45.728c-.306-.767-.306-1.57-.306-2.373v-4.773c-.009-1.561-.812-2.608-2.31-3.068-.55-.172-1.11-.244-1.67-.28-1.326-.1-2.625-.018-3.861.532-1.146.506-1.787 1.39-1.958 2.635-.037.262.027.37.324.37a59 59 0 0 1 2.536 0c.262 0 .36-.09.433-.325.127-.424.406-.721.83-.857.659-.198 1.309-.18 1.922.172.38.216.524.56.46.983-.063.442-.37.623-.767.704-1.136.244-2.3.307-3.428.569-2.202.523-3.123 1.876-2.608 4.087.28 1.218 1.407 2.012 2.86 2.139 1.453.117 2.807-.163 3.97-1.183.055.271.1.479.145.677.027.154.1.244.27.244H51.7c.19 0 .253-.063.18-.253zm-3.843-2.707c-.38 1.029-1.94 1.49-2.825.84-.631-.46-.568-1.453.127-1.895.433-.271.93-.343 1.416-.452.488-.099.975-.18 1.498-.388.045.677 0 1.3-.207 1.886z"/><path fill="#ea2d36" d="M27.715 48.282c.379.09.433.27.253.785H16.634c-.307 0-.55-.027-.586-.406-.018-.198.036-.325.252-.343h10.792c.208 0 .415-.018.623-.027z"/></svg>
